X: 233
T: Skippin' Cat
C: Jack Link 1986
M: C|
R: reel
K: G
B,C| "G"DCB,C DCB,C| DGBG "C"c2 Bc| "G"dedc BAG=F| "C"EC-C2 C2B,C|
"G"DCB,C DCB,C| DGBG "C"cdef| "D"gage dBAc |1 "G"BG-G2 G2 :|2 "G"BG-G2 G4|]
|:"D"A3c "G"B2d2| "D"ABcA "G"BG-G2| "D"A3c Bdef| gedc "G"BG-G2|
"D"A3c "G"B2d2| "D"ABcA "G"Bdef| "D"gage dBAc |1 "G"BG-G2 G4 :|2 "G"BG-G2 G2|]
